X: 103
T: the Royal Charlotte
%%VWML:Thompsons1762-2277a-p52-0 
F:http://www.vwml.org/record/Thompsons1762/2277a/p52
Z: 2014 John Chambers <jc:trillian.mit.edu>
B: Thompson "Twenty four Country Dances for the Year 1762" p.52 #1
F: http://www.vwml.org/browse/browse-collections-dance-tune-books/browse-thompsons1762# 2014 -8-11
M: 6/8
L: 1/8
K: A
c/d/ |\
ecA a2e | faf ecA | cea aec | BBB B2c/d/ | ecA a2e | faf ecA | def ecA | EAA A2 :|
|: A |\
cAA eAA | fAA eAA | cAA ecc | dBB B2B |\
cAA eAA | fAA faa | aee ecc | cA[AE] [A2A,2] :| 
%-------------------------
%%begintext align
%% Foot it 4 and right hands across quite round .|. 
%% foot it and left back again :|. cross over two Cu: .|: 
%% lead to the top and cast off :|:
%%endtext
%-------------------------
T: Nancy Dawsons Fancy
%R: reel
Z: 2014 John Chambers <jc:trillian.mit.edu>
B: Thompson "Twenty four Country Dances for the Year 1762" p.52 #2
F: http://www.vwml.org/browse/browse-collections-dance-tune-books/browse-thompsons1762# 2014 -8-11
M: C
L: 1/8
K: G
d/c/ |\
BGdB A/G/F/E/ Dc | BGgB {B}A3c |\
Bgfe dBec | {c}B2{B}TA2 G2 :|
|: ((3e/f/g/) |\
fe/d/ e2 dc/B/ c2 | BGgB A3g |\
fdec dc/B/ ec | {c}B2{B}TA2 G2 :|
%-------------------------
%%begintext align
%% The First Cu: Gallop down one Cu: up again and cast
%% off .|. Gallop down another Cu: up again and cast off
%% :|. Hands round all Six .|: lead up to the top foot it
%% and cast off :|:
%%endtext
%-------------------------
